svgs/keepassdx.svg

<?xml version="1.0" encoding="UTF-8" standalone="no"?>
<!-- Created with Inkscape (http://www.inkscape.org/) -->

<svg
   width="24"
   height="24"
   viewBox="0 0 6.3499999 6.35"
   version="1.1"
   id="svg5"
   xml:space="preserve"
   inkscape:version="1.2.1 (9c6d41e410, 2022-07-14)"
   sodipodi:docname="keepass.svg"
   xmlns:inkscape="http://www.inkscape.org/namespaces/inkscape"
   xmlns:sodipodi="http://sodipodi.sourceforge.net/DTD/sodipodi-0.dtd"
   xmlns="http://www.w3.org/2000/svg"
   xmlns:svg="http://www.w3.org/2000/svg"><sodipodi:namedview
     id="namedview7"
     pagecolor="#505050"
     bordercolor="#ffffff"
     borderopacity="1"
     inkscape:showpageshadow="0"
     inkscape:pageopacity="0"
     inkscape:pagecheckerboard="1"
     inkscape:deskcolor="#505050"
     inkscape:document-units="px"
     showgrid="false"
     inkscape:zoom="32"
     inkscape:cx="16.921875"
     inkscape:cy="11.25"
     inkscape:window-width="1920"
     inkscape:window-height="1044"
     inkscape:window-x="0"
     inkscape:window-y="0"
     inkscape:window-maximized="1"
     inkscape:current-layer="svg5" /><defs
     id="defs2"><clipPath
       clipPathUnits="userSpaceOnUse"
       id="clipPath28"><path
         d="M 0,807 H 712 V 0 H 0 Z"
         id="path26"
         inkscape:connector-curvature="0" /></clipPath><mask
       maskUnits="userSpaceOnUse"
       x="0"
       y="0"
       width="1"
       height="1"
       id="mask42"><g
         id="g58"><g
           clip-path="url(#clipPath36)"
           id="g56"><path
             d="m 163.75,548.25 h 384.5 v -384.5 h -384.5 z"
             style="fill:#000000;fill-opacity:1;fill-rule:nonzero;stroke:none"
             id="path44"
             inkscape:connector-curvature="0" /><g
             id="g54"><g
               id="g46" /><g
               id="g52"><g
                 clip-path="url(#clipPath40)"
                 id="g50"><path
                   d="M 99.917,612.083 H 612.586 V 99.414 H 99.917 Z"
                   style="fill:#ffffff;fill-opacity:1;fill-rule:nonzero;stroke:none"
                   id="path48"
                   inkscape:connector-curvature="0" /></g></g></g></g></g></mask><clipPath
       clipPathUnits="userSpaceOnUse"
       id="clipPath36"><path
         d="m 163.75,548.25 h 384.5 v -384.5 h -384.5 z"
         id="path34"
         inkscape:connector-curvature="0" /></clipPath><clipPath
       clipPathUnits="userSpaceOnUse"
       id="clipPath40"><path
         d="m 163.75,548.25 h 384.5 v -384.5 h -384.5 z"
         id="path38"
         inkscape:connector-curvature="0" /></clipPath><clipPath
       clipPathUnits="userSpaceOnUse"
       id="clipPath66"><path
         d="m 163.75,548.25 h 384.5 v -384.5 h -384.5 z"
         id="path64"
         inkscape:connector-curvature="0" /></clipPath><clipPath
       clipPathUnits="userSpaceOnUse"
       id="clipPath70"><path
         d="M 164,548 H 548 V 164 H 164 Z"
         id="path68"
         inkscape:connector-curvature="0" /></clipPath><clipPath
       clipPathUnits="userSpaceOnUse"
       id="clipPath74"><path
         d="M 164.066,547.968 H 547.999 V 163.956 H 164.066 Z"
         id="path72"
         inkscape:connector-curvature="0" /></clipPath><clipPath
       clipPathUnits="userSpaceOnUse"
       id="clipPath78"><path
         d="M 164.02,547.93 H 547.835 V 164.176 H 164.02 Z"
         id="path76"
         inkscape:connector-curvature="0" /></clipPath><clipPath
       clipPathUnits="userSpaceOnUse"
       id="clipPath82"><path
         d="m 299.75,548.25 h 0.5 v -384.5 h -0.5 z"
         id="path80"
         inkscape:connector-curvature="0" /></clipPath><clipPath
       clipPathUnits="userSpaceOnUse"
       id="clipPath86"><path
         d="m 355.75,548.25 h 0.5 v -384.5 h -0.5 z"
         id="path84"
         inkscape:connector-curvature="0" /></clipPath><clipPath
       clipPathUnits="userSpaceOnUse"
       id="clipPath90"><path
         d="m 411.83,548.25 h 0.5 v -384.5 h -0.5 z"
         id="path88"
         inkscape:connector-curvature="0" /></clipPath><clipPath
       clipPathUnits="userSpaceOnUse"
       id="clipPath94"><path
         d="m 163.9,412.1 h 383.933 v -0.2 H 163.9 Z"
         id="path92"
         inkscape:connector-curvature="0" /></clipPath><clipPath
       clipPathUnits="userSpaceOnUse"
       id="clipPath98"><path
         d="m 163.9,356.1 h 383.933 v -0.2 H 163.9 Z"
         id="path96"
         inkscape:connector-curvature="0" /></clipPath><clipPath
       clipPathUnits="userSpaceOnUse"
       id="clipPath102"><path
         d="m 163.75,300.25 h 384.233 v -0.5 H 163.75 Z"
         id="path100"
         inkscape:connector-curvature="0" /></clipPath><filter
       style="color-interpolation-filters:sRGB"
       inkscape:label="Drop Shadow"
       id="filter6016-3-1"><feFlood
         flood-opacity="0.239216"
         flood-color="rgb(0,0,0)"
         result="flood"
         id="feFlood6018-5-8" /><feComposite
         in="flood"
         in2="SourceGraphic"
         operator="in"
         result="composite1"
         id="feComposite6020-6-7" /><feGaussianBlur
         in="composite1"
         stdDeviation="2"
         result="blur"
         id="feGaussianBlur6022-2-9" /><feOffset
         dx="0"
         dy="4"
         result="offset"
         id="feOffset6024-9-2" /><feComposite
         in="SourceGraphic"
         in2="offset"
         operator="over"
         result="fbSourceGraphic"
         id="feComposite6026-1-0" /><feColorMatrix
         result="fbSourceGraphicAlpha"
         in="fbSourceGraphic"
         values="0 0 0 -1 0 0 0 0 -1 0 0 0 0 -1 0 0 0 0 1 0"
         id="feColorMatrix6028-2-2" /><feFlood
         id="feFlood6030-7-3"
         flood-opacity="0.121569"
         flood-color="rgb(0,0,0)"
         result="flood"
         in="fbSourceGraphic" /><feComposite
         id="feComposite6032-0-7"
         in2="fbSourceGraphic"
         in="flood"
         operator="in"
         result="composite1" /><feGaussianBlur
         id="feGaussianBlur6034-9-5"
         in="composite1"
         stdDeviation="2"
         result="blur" /><feOffset
         id="feOffset6036-3-9"
         dx="0"
         dy="0"
         result="offset" /><feComposite
         id="feComposite6038-6-2"
         in2="offset"
         in="fbSourceGraphic"
         operator="over"
         result="composite2" /></filter><filter
       style="color-interpolation-filters:sRGB"
       inkscape:label="Drop Shadow"
       id="filter4160"><feFlood
         flood-opacity="0.239216"
         flood-color="rgb(0,0,0)"
         result="flood"
         id="feFlood4138" /><feComposite
         in="flood"
         in2="SourceGraphic"
         operator="in"
         result="composite1"
         id="feComposite4140" /><feGaussianBlur
         in="composite1"
         stdDeviation="2"
         result="blur"
         id="feGaussianBlur4142" /><feOffset
         dx="0"
         dy="4"
         result="offset"
         id="feOffset4144" /><feComposite
         in="SourceGraphic"
         in2="offset"
         operator="over"
         result="fbSourceGraphic"
         id="feComposite4146" /><feColorMatrix
         result="fbSourceGraphicAlpha"
         in="fbSourceGraphic"
         values="0 0 0 -1 0 0 0 0 -1 0 0 0 0 -1 0 0 0 0 1 0"
         id="feColorMatrix4148" /><feFlood
         id="feFlood4150"
         flood-opacity="0.121569"
         flood-color="rgb(0,0,0)"
         result="flood"
         in="fbSourceGraphic" /><feComposite
         id="feComposite4152"
         in2="fbSourceGraphic"
         in="flood"
         operator="in"
         result="composite1" /><feGaussianBlur
         id="feGaussianBlur4154"
         in="composite1"
         stdDeviation="2"
         result="blur" /><feOffset
         id="feOffset4156"
         dx="0"
         dy="0"
         result="offset" /><feComposite
         id="feComposite4158"
         in2="offset"
         in="fbSourceGraphic"
         operator="over"
         result="composite2" /></filter><filter
       style="color-interpolation-filters:sRGB"
       inkscape:label="Drop Shadow"
       id="filter4184"><feFlood
         flood-opacity="0.239216"
         flood-color="rgb(0,0,0)"
         result="flood"
         id="feFlood4162" /><feComposite
         in="flood"
         in2="SourceGraphic"
         operator="in"
         result="composite1"
         id="feComposite4164" /><feGaussianBlur
         in="composite1"
         stdDeviation="2"
         result="blur"
         id="feGaussianBlur4166" /><feOffset
         dx="0"
         dy="4"
         result="offset"
         id="feOffset4168" /><feComposite
         in="SourceGraphic"
         in2="offset"
         operator="over"
         result="fbSourceGraphic"
         id="feComposite4170" /><feColorMatrix
         result="fbSourceGraphicAlpha"
         in="fbSourceGraphic"
         values="0 0 0 -1 0 0 0 0 -1 0 0 0 0 -1 0 0 0 0 1 0"
         id="feColorMatrix4172" /><feFlood
         id="feFlood4174"
         flood-opacity="0.121569"
         flood-color="rgb(0,0,0)"
         result="flood"
         in="fbSourceGraphic" /><feComposite
         id="feComposite4176"
         in2="fbSourceGraphic"
         in="flood"
         operator="in"
         result="composite1" /><feGaussianBlur
         id="feGaussianBlur4178"
         in="composite1"
         stdDeviation="2"
         result="blur" /><feOffset
         id="feOffset4180"
         dx="0"
         dy="0"
         result="offset" /><feComposite
         id="feComposite4182"
         in2="offset"
         in="fbSourceGraphic"
         operator="over"
         result="composite2" /></filter><clipPath
       clipPathUnits="userSpaceOnUse"
       id="clipPath28-7"><path
         d="M 0,807 H 712 V 0 H 0 Z"
         id="path26-3"
         inkscape:connector-curvature="0" /></clipPath><mask
       maskUnits="userSpaceOnUse"
       x="0"
       y="0"
       width="1"
       height="1"
       id="mask42-6"><g
         id="g58-1"><g
           clip-path="url(#clipPath36-8)"
           id="g56-2"><path
             d="m 163.75,548.25 h 384.5 v -384.5 h -384.5 z"
             style="fill:#000000;fill-opacity:1;fill-rule:nonzero;stroke:none"
             id="path44-9"
             inkscape:connector-curvature="0" /><g
             id="g54-3"><g
               id="g46-1" /><g
               id="g52-9"><g
                 clip-path="url(#clipPath40-5)"
                 id="g50-4"><path
                   d="M 99.917,612.083 H 612.586 V 99.414 H 99.917 Z"
                   style="fill:#ffffff;fill-opacity:1;fill-rule:nonzero;stroke:none"
                   id="path48-7"
                   inkscape:connector-curvature="0" /></g></g></g></g></g></mask><clipPath
       clipPathUnits="userSpaceOnUse"
       id="clipPath36-8"><path
         d="m 163.75,548.25 h 384.5 v -384.5 h -384.5 z"
         id="path34-4"
         inkscape:connector-curvature="0" /></clipPath><clipPath
       clipPathUnits="userSpaceOnUse"
       id="clipPath40-5"><path
         d="m 163.75,548.25 h 384.5 v -384.5 h -384.5 z"
         id="path38-0"
         inkscape:connector-curvature="0" /></clipPath><clipPath
       clipPathUnits="userSpaceOnUse"
       id="clipPath66-3"><path
         d="m 163.75,548.25 h 384.5 v -384.5 h -384.5 z"
         id="path64-6"
         inkscape:connector-curvature="0" /></clipPath><clipPath
       clipPathUnits="userSpaceOnUse"
       id="clipPath70-1"><path
         d="M 164,548 H 548 V 164 H 164 Z"
         id="path68-0"
         inkscape:connector-curvature="0" /></clipPath><clipPath
       clipPathUnits="userSpaceOnUse"
       id="clipPath74-6"><path
         d="M 164.066,547.968 H 547.999 V 163.956 H 164.066 Z"
         id="path72-3"
         inkscape:connector-curvature="0" /></clipPath><clipPath
       clipPathUnits="userSpaceOnUse"
       id="clipPath78-2"><path
         d="M 164.02,547.93 H 547.835 V 164.176 H 164.02 Z"
         id="path76-0"
         inkscape:connector-curvature="0" /></clipPath><clipPath
       clipPathUnits="userSpaceOnUse"
       id="clipPath82-6"><path
         d="m 299.75,548.25 h 0.5 v -384.5 h -0.5 z"
         id="path80-1"
         inkscape:connector-curvature="0" /></clipPath><clipPath
       clipPathUnits="userSpaceOnUse"
       id="clipPath86-5"><path
         d="m 355.75,548.25 h 0.5 v -384.5 h -0.5 z"
         id="path84-5"
         inkscape:connector-curvature="0" /></clipPath><clipPath
       clipPathUnits="userSpaceOnUse"
       id="clipPath90-4"><path
         d="m 411.83,548.25 h 0.5 v -384.5 h -0.5 z"
         id="path88-7"
         inkscape:connector-curvature="0" /></clipPath><clipPath
       clipPathUnits="userSpaceOnUse"
       id="clipPath94-6"><path
         d="m 163.9,412.1 h 383.933 v -0.2 H 163.9 Z"
         id="path92-5"
         inkscape:connector-curvature="0" /></clipPath><clipPath
       clipPathUnits="userSpaceOnUse"
       id="clipPath98-6"><path
         d="m 163.9,356.1 h 383.933 v -0.2 H 163.9 Z"
         id="path96-9"
         inkscape:connector-curvature="0" /></clipPath><clipPath
       clipPathUnits="userSpaceOnUse"
       id="clipPath102-3"><path
         d="m 163.75,300.25 h 384.233 v -0.5 H 163.75 Z"
         id="path100-7"
         inkscape:connector-curvature="0" /></clipPath><filter
       style="color-interpolation-filters:sRGB"
       inkscape:label="Drop Shadow"
       id="filter1265"
       x="-2.0269526"
       y="-2.0270933"
       width="5.0539052"
       height="5.8988088"><feFlood
         flood-opacity="0.27451"
         flood-color="rgb(0,0,0)"
         result="flood"
         id="feFlood1255" /><feComposite
         in="flood"
         in2="SourceGraphic"
         operator="in"
         result="composite1"
         id="feComposite1257" /><feGaussianBlur
         in="composite1"
         stdDeviation="2"
         result="blur"
         id="feGaussianBlur1259" /><feOffset
         dx="4.57967e-15"
         dy="2"
         result="offset"
         id="feOffset1261" /><feComposite
         in="SourceGraphic"
         in2="offset"
         operator="over"
         result="composite2"
         id="feComposite1263" /></filter><filter
       style="color-interpolation-filters:sRGB"
       inkscape:label="Drop Shadow"
       id="filter1253"
       x="-0.070925703"
       y="-0.070922933"
       width="1.1418514"
       height="1.1713971"><feFlood
         flood-opacity="0.27451"
         flood-color="rgb(0,0,0)"
         result="flood"
         id="feFlood1243" /><feComposite
         in="flood"
         in2="SourceGraphic"
         operator="in"
         result="composite1"
         id="feComposite1245" /><feGaussianBlur
         in="composite1"
         stdDeviation="2"
         result="blur"
         id="feGaussianBlur1247" /><feOffset
         dx="4.57967e-15"
         dy="2"
         result="offset"
         id="feOffset1249" /><feComposite
         in="SourceGraphic"
         in2="offset"
         operator="over"
         result="composite2"
         id="feComposite1251" /></filter></defs><path
     id="path2033"
     style="display:inline;fill:#000000;fill-rule:evenodd;stroke-width:0.0380185;stroke-linecap:round;stroke-linejoin:round;paint-order:fill markers stroke;fill-opacity:1"
     d="M 0.73195456,0.86410787 V 1.4272191 L 4.9473696,5.6427958 H 5.5104631 V 5.0796845 L 1.2950467,0.86410787 Z M 2.167629,3.6508801 0.52916668,5.2894036 V 5.852515 H 1.0922587 l 0.59938,-0.5994 v 0.00216 H 2.254729 V 4.6921771 h -0.00211 l 0.00211,-0.00216 v 0.00216 H 2.8198892 V 4.3032965 Z M 4.6789366,0.49825897 c -0.2775565,0.010813 -0.5409684,0.125107 -0.7374195,0.3214613 -0.4299495,0.42991603 -0.4299495,1.12700113 0,1.55691733 0.429899,0.4299594 1.1269557,0.4299594 1.556854,0 0.4299495,-0.4299162 0.4299495,-1.1270013 0,-1.55691733 C 5.2818164,0.60326457 4.9848993,0.48678637 4.6789366,0.49825897 Z M 5.1586639,1.2615739 c 0.1858798,4.33e-5 0.3365528,0.1507232 0.3366028,0.3366104 -5e-5,0.1858872 -0.150723,0.3365671 -0.3366028,0.3366103 C 4.9727836,1.9347514 4.8221111,1.7840715 4.8220608,1.5981843 4.8221111,1.4122971 4.9727836,1.2616172 5.1586639,1.2615739 Z"
     sodipodi:nodetypes="cccccccccccccccccccccccccccccccc" /></svg>

<svg xmlns="http://www.w3.org/2000/svg" xml:space="preserve" width="24" height="24" viewBox="0 0 6.35 6.35"><path d="M.732.864v.563l4.215 4.216h.563V5.08L1.295.864Zm1.436 2.787L.529 5.289v.564h.563l.6-.6v.002h.563v-.563h-.002l.002-.002v.002h.565v-.389Zm.48.764a.337.337 0 1 1 0 .673.337.337 0 0 1 0-.673" style="display:inline;fill:#000;fill-rule:evenodd;stroke-width:.0380185;stroke-linecap:round;stroke-linejoin:round;paint-order:fill markers stroke;fill-opacity:1"/></svg>
